!!!!SEGMENT: pl-cz--iii-979--009_kasprzykowski-ignacy--missa-es-agnus.krn
!!!cenid: 18xx:864
!!!COM: Kasprzykowski, Ignacy
!!!COM-rismid: pe30098316
!!!CDT: -1752/02/17
!!!CNT:
!!!OPR: Missa Es
!!!OTL: Agnus
!!!OMV: 009
!!!PDT:
!!!AGN: Sacred; Mass
!!!SMS-siglum: PL-CZ
!!!SMS-shelfmark: III-979
!!!SMS-shelfwork: 001-009 M
!!!SMS-variant:
!!!SMS-altvar:
!!!NIFC-rismid: 300000565
!!!URL-scan: http://repozytorium.nifc.pl/skany/pl-cz-nut--iii-979
!!!ONB-nifc: UWAGA: części Mszy: Kyrie, Gloria, Credo, Et incarnatus, Et resurrexit, Sanctus, Pleni,
!!!key: E-
**kern	**dynam	**kern	**text	**kern	**text	**kern	**dynam
*part4	*part4	*part3	*part3	*part2	*part2	*part1	*part1
*staff4	*	*staff3	*staff3	*staff2	*staff2	*staff1	*
*I"Violino Primo in Dis	*	*I"Baſso in Dis	*	*I"Canto in. Dis	*	*I"Clarinetto Primo in B	*
*I'vl 1 in Dis	*	*I'B	*	*I'S	*	*I'cl 1 in B	*
*Ivioln	*	*Ibass	*	*Isoprn	*	*Iclarb	*
*ICstr	*	*ICvox	*	*ICvox	*	*ICww	*
*clefG2	*	*clefF4	*	*clefC1	*	*clefG2	*
*	*	*	*	*	*	*ITrd1c2	*
*k[b-e-a-]	*	*k[e-b-a-]	*	*k[b-a-e-]	*	*k[b-e-a-]	*
*E-:	*	*E-:	*	*E-:	*	*E-:	*
*M4/4	*	*M4/4	*	*	*	*M4/4	*
*met(c)	*	*met(c)	*	*	*	*met(c|)	*
=1	=1	=1	=1	=1	=1	=1	=1
*	*	*all\right	*	*all\right	*	*	*
!	!	!LO:TX:t=P:problem:znaki E- BB- A-	!	!	!	!	!
!LO:TX:a:i:t=Andante&colon;	!	!LO:TX:a:rj:t=Adagio Solo:color=red	!	!LO:TX:a:rj:t=Adagio:color=red	!	!LO:TX:a:t=Adagio.	!
!	!LO:DY:b:rj	!LO:TX:a:t=1	!	!LO:TX:a:t=11	!	!LO:TX:a:t=10.	!
8r	p	1r	.	1r	.	00r	.
8b-\L	.	.	.	.	.	.	.
8b-\	.	.	.	.	.	.	.
8b-\J	.	.	.	.	.	.	.
8r	.	.	.	.	.	.	.
8b-\L	.	.	.	.	.	.	.
8b-\	.	.	.	.	.	.	.
8b-\J	.	.	.	.	.	.	.
=2	=2	=2	=2	=2	=2	=2	=2
*	*	*2\right	*	*	*	*	*
8r	.	(2B-\	A-	1r	.	.	.
8b-\L	.	.	.	.	.	.	.
8b-\	.	.	.	.	.	.	.
8b-\J	.	.	.	.	.	.	.
8r	.	4G\)	.	.	.	.	.
8b-\L	.	.	.	.	.	.	.
8b-\	.	4E-\	-gnus	.	.	.	.
!	!	!LO:TX:t=P:problem:po tym takcie takt z dwoma pauzami OOr, być może przebitka z odwrotnej strony	!	!	!	!	!
8b-\J	.	.	.	.	.	.	.
=3	=3	=3	=3	=3	=3	=3	=3
8r	.	(8F\L	De-	1r	.	.	.
8b-\L	.	8G\J)	.	.	.	.	.
8b-\	.	4E-\	-i	.	.	.	.
8b-\J	.	.	.	.	.	.	.
8r	.	2r	.	.	.	.	.
8b-\L	.	.	.	.	.	.	.
8b-\	.	.	.	.	.	.	.
8b-\J	.	.	.	.	.	.	.
!LO:LB:g=original	!	!	!	!	!	!	!
=4	=4	=4	=4	=4	=4	=4	=4
8r	.	(2c\	A-	1r	.	.	.
8cc\L	.	.	.	.	.	.	.
8cc\	.	.	.	.	.	.	.
8cc\J	.	.	.	.	.	.	.
8r	.	4A-\)	.	.	.	.	.
8cc\L	.	.	.	.	.	.	.
8cc\	.	4E-\	-gnus	.	.	.	.
8cc\J	.	.	.	.	.	.	.
!	!	!LO:LB:g=original	!	!	!	!	!
=5	=5	=5	=5	=5	=5	=5	=5
8r	.	4C/	De-	1r	.	00r	.
8cc\L	.	.	.	.	.	.	.
8cc\	.	4AA-/	-i	.	.	.	.
8cc\J	.	.	.	.	.	.	.
8r	.	4C/	qui	.	.	.	.
8cc\L	.	.	.	.	.	.	.
8cc\	.	4E-/	tol-	.	.	.	.
8cc\J	.	.	.	.	.	.	.
=6	=6	=6	=6	=6	=6	=6	=6
8r	.	2.A-\	-lis	1r	.	.	.
8cc\L	.	.	.	.	.	.	.
8cc\	.	.	.	.	.	.	.
8cc\J	.	.	.	.	.	.	.
8r	.	.	.	.	.	.	.
8cc\L	.	.	.	.	.	.	.
8cc\	.	8B-\L	pec-	.	.	.	.
8cc\J	.	8c\J	.	.	.	.	.
=7	=7	=7	=7	=7	=7	=7	=7
8r	.	(8An\L	-ca-	1r	.	.	.
8b-\L	.	8B-\J)	.	.	.	.	.
8b-\	.	4B-\	-ta	.	.	.	.
8b-\J	.	.	.	.	.	.	.
8r	.	4r	.	.	.	.	.
8b-\L	.	.	.	.	.	.	.
!	!	!LO:TX:t=P:problem:dźwięk c zapisany samą linią dodaną bez główki nuty:global	!	!	!	!	!
8b-\	.	(8c\L	mun-	.	.	.	.
8b-\J	.	8B-\J)	.	.	.	.	.
!LO:PB:g=original	!	!	!	!	!	!	!
=8	=8	=8	=8	=8	=8	=8	=8
!LO:TX:t=P:problem:nieczytelne nuty,pauzy,podział na takty w tt. 8-11, zapis prawdopodobny	!	!	!	!	!	!	!
8r	.	(8B-\L	-di	1r	.	.	.
8cc\L	.	8D\J)	.	.	.	.	.
8cc\	.	4.D\	qui	.	.	.	.
8cc\J	.	.	.	.	.	.	.
8r	.	.	.	.	.	.	.
8cc\L	.	8F\L	.	.	.	.	.
8cc\	.	8A-\	.	.	.	.	.
8cc\J	.	8D\J	.	.	.	.	.
!	!	!LO:LB:g=original	!	!	!	!	!
=9	=9	=9	=9	=9	=9	=9	=9
8r	.	(8F\L	tol-	1r	.	0r	.
8b-\L	.	8E-\J)	.	.	.	.	.
8b-\	.	2E-\	-lis	.	.	.	.
8b-\J	.	.	.	.	.	.	.
8r	.	.	.	.	.	.	.
8b-\L	.	.	.	.	.	.	.
!	!	!LO:TX:t=P:problem:dźwięk e zapisany samą linią dodaną bez główki nuty:global	!	!	!	!	!
8b-\	.	(8e-\L	pec-	.	.	.	.
8b-\J	.	8d\J)	.	.	.	.	.
=10	=10	=10	=10	=10	=10	=10	=10
8r	.	(8c\L	-ca-	1r	.	.	.
8cc\L	.	8G\)	.	.	.	.	.
8cc\	.	(8A-\	-ta	.	.	.	.
8cc\J	.	8F\J)	.	.	.	.	.
8b-/L	.	4E-\	mun-	.	.	.	.
8b-/	.	.	.	.	.	.	.
8d/	.	4D\	.	.	.	.	.
8e-/J	.	.	.	.	.	.	.
=11	=11	=11	=11	=11	=11	=11	=11
2e-/	.	2E-\	-di	1r	.	2r	.
2r	.	2r	.	.	.	8r	p
.	.	.	.	.	.	8gg\L	.
.	.	.	.	.	.	8gg\	.
.	.	.	.	.	.	8gg\J	.
!LO:PB:g=original	!	!	!	!	!	!	!
=12	=12	=12	=12	=12	=12	=12	=12
!	!LO:DY:b:rj:t=for.	!	!	!	!	!	!
4r	f	4r	.	4r	.	8bb-\	.
.	.	.	.	.	.	8r	.
4dd 4f 4B-/	.	4B-\	A-	4dd\	A-	4dd\	f
4dd 4f 4B-/	.	4B-\	-gnus	4dd\	-gnus	4dd\	.
4dd 4f 4B-/	.	4B-\	De-	4dd\	De-	4dd\	.
=13	=13	=13	=13	=13	=13	=13	=13
*	*	*	*	*2\right	*	*2\right	*
2ee- 2e- 2G/	.	2E-\	-i	2ee-\	-i	2ee-\	.
2r	.	2r	.	2r	.	8r	.
.	.	.	.	.	.	8gg\L	p
.	.	.	.	.	.	8gg\	.
.	.	.	.	.	.	8gg\J	.
!	!	!LO:LB:g=original	!	!	!	!	!
=14	=14	=14	=14	=14	=14	=14	=14
4r	.	4r	.	4r	.	8bb-\	.
.	.	.	.	.	.	8r	.
4dd 4f 4B-/	.	4B-\	qui	4dd\	qui	4dd\	f
4dd 4f 4B-/	.	4B-\	tol-	4dd\	tol-	4dd\	.
4dd 4f 4B-/	.	4B-\	-lis	4dd\	-lis	4dd\	.
!	!	!	!	!LO:LB:g=original	!	!	!
=15	=15	=15	=15	=15	=15	=15	=15
2ee- 2e- 2G/	.	2e-\	pec-	2ee-\	pec-	2ee-\	.
2ee- 2e- 2G/	.	2E-\	-ca-	2ee-\	-ca-	2gg\	.
=16	=16	=16	=16	=16	=16	=16	=16
2ee- 2e- 2G/	.	2E-\	-ta	2ee-\	-ta	2ee-\	.
2r	.	4r	.	2r	.	2r	.
.	.	4BB-/	A-	.	.	.	.
!	!	!	!	!	!	!LO:LB:g=original	!
=17	=17	=17	=17	=17	=17	=17	=17
!	!LO:DY:b:rj	!	!	!LO:TX:a:t=6	!	!LO:TX:a:t=5.	!
8r	p	2G\	.	1r	.	00r	.
8b-\L	.	.	.	.	.	.	.
8b-\	.	.	.	.	.	.	.
8b-\J	.	.	.	.	.	.	.
8r	.	8F\L	-gnus	.	.	.	.
8b-\L	.	8G\	.	.	.	.	.
8b-\	.	8A-\	.	.	.	.	.
8b-\J	.	8D\J	.	.	.	.	.
=18	=18	=18	=18	=18	=18	=18	=18
8r	.	(8F\L	De-	1r	.	.	.
8b-\L	.	8E-\J)	.	.	.	.	.
8b-\	.	4E-\	-i	.	.	.	.
8b-\J	.	.	.	.	.	.	.
8r	.	2r	.	.	.	.	.
8b-\L	.	.	.	.	.	.	.
8b-\	.	.	.	.	.	.	.
8b-\J	.	.	.	.	.	.	.
!LO:PB:g=original	!	!LO:LB:g=original	!	!	!	!	!
=19	=19	=19	=19	=19	=19	=19	=19
8r	.	4c\	qui	1r	.	.	.
8cc\L	.	.	.	.	.	.	.
8cc\	.	4AA-/	tol-	.	.	.	.
8cc\J	.	.	.	.	.	.	.
!	!	!LO:TUP:b	!	!	!	!	!
8r	.	12AA-/L	.	.	.	.	.
.	.	12C/	.	.	.	.	.
8cc\L	.	.	.	.	.	.	.
.	.	12E-/J	.	.	.	.	.
*	*	*Xtuplet	*	*	*	*	*
8cc\	.	12A-\L	.	.	.	.	.
.	.	12E-\	.	.	.	.	.
8cc\J	.	.	.	.	.	.	.
.	.	12c\J	.	.	.	.	.
=20	=20	=20	=20	=20	=20	=20	=20
8r	.	(8An\L	-lis	1r	.	.	.
8b-\L	.	8B-\J)	.	.	.	.	.
8b-\	.	4B-\	pec-	.	.	.	.
8b-\J	.	.	.	.	.	.	.
8r	.	2r	.	.	.	.	.
8b-\L	.	.	.	.	.	.	.
8b-\	.	.	.	.	.	.	.
8b-\J	.	.	.	.	.	.	.
=21	=21	=21	=21	=21	=21	=21	=21
8r	.	(8Bn\L	-ca-	1r	.	1r	.
8cc\L	.	8c\)	.	.	.	.	.
8b-\	.	(8A-\	-ta	.	.	.	.
8a-\J	.	8F\J)	.	.	.	.	.
4g/	.	4E-\	Mun-	.	.	.	.
4f/	.	4D\	.	.	.	.	.
=22	=22	=22	=22	=22	=22	=22	=22
2e-/	.	2E-\	-di	1r	.	2r	.
2r	.	2r	.	.	.	8r	.
.	.	.	.	.	.	8bb-\L	p
.	.	.	.	.	.	8bb-\	.
.	.	.	.	.	.	8bb-\J	.
!	!	!LO:LB:g=original	!	!	!	!	!
=23	=23	=23	=23	=23	=23	=23	=23
!	!LO:DY:b:rj:t=for.	!	!	!	!	!	!
2dd 2f 2B-/	f	2B-\	Mi-	2dd\	Mi-	2dd\	f
2r	.	2r	.	2r	.	8r	.
.	.	.	.	.	.	8bb-\L	p
.	.	.	.	.	.	8bb-\	.
.	.	.	.	.	.	8bb-\J	.
=24	=24	=24	=24	=24	=24	=24	=24
2ee- 2e- 2G/	.	2E-\	-ſe-	2ee-\	-ſe-	2ee-\	f
2r	.	2r	.	2r	.	8r	.
.	.	.	.	.	.	8bb-\L	p
.	.	.	.	.	.	8bb-\	.
.	.	.	.	.	.	8bb-\J	.
=25	=25	=25	=25	=25	=25	=25	=25
2dd 2f 2B-/	.	2B-\	-re-	2dd\	-re-	2dd\	f
2r	.	2r	.	2r	.	8r	.
.	.	.	.	.	.	8bb-\L	p
.	.	.	.	.	.	8bb-\	.
.	.	.	.	.	.	8bb-\J	.
=26	=26	=26	=26	=26	=26	=26	=26
!	!	!	!	!	!	!	!LO:DY:rj
2ee- 2e- 2G/	.	2E-\	-re	2ee-\	-re	2ee-\	f
!	!	!	!	!	!	!LO:N:vis=2.	!
2ee- 2e- 2G/	.	2E-\	No-	2ee-\	No-	2gg\	.
!	!	!	!	!LO:LB:g=original	!	!	!
=27	=27	=27	=27	=27	=27	=27	=27
2ee- 2e- 2G/	.	2E-;\	-bis	2ee-;\	-bis	2ee-;\	.
!LO:TX:b:i:t=Dona Nobis ut Gloria.	!	!LO:TX:b:i:t=Dona ut \nGlo(ria)	!	!LO:TX:b:i:t=Dona Nobis ut Gloria:color=red	!	!LO:TX:b:i:t=Dona nobis ut Gloria	!
!LO:TX:b:i:t=M Siewierz\nJ&colon; 1824	!	!	!	!	!	!	!
2r	.	2r	.	2r	.	2r	.
==	==	==	==	==	==	==	==
*-	*-	*-	*-	*-	*-	*-	*-
!!!system-decoration: s1[(s2,s3)]s4
!!!RDF**dynam: p = "p."
!!!RDF**dynam: f = "f."
!!!AIN: 1 bass 1 clarb 1 soprn 1 violn
!!!ENC: Marta Chmielewska
!!!END: 2020-08-11
!!!ENC: Marta Lawrence
!!!END: 2021-11-19
